client/public/game_modes/bouncing_ball/frame17.svg

<svg xmlns="http://www.w3.org/2000/svg" width="437" height="483" fill="none"><path fill="#EDEDED" d="M239 125h20v20h-20v-20Zm0 20h20v20h-20v-20Zm20 20h20v20h-20v-20Zm0-20h20v20h-20v-20Zm20 20h20v20h-20v-20Zm0 20h20v20h-20v-20Zm-20 0h20v20h-20v-20Zm-20-20h20v20h-20v-20Zm-20-20h20v20h-20v-20Zm0-20h20v20h-20v-20Z"/><path stroke="#EDEDED" stroke-width="5" d="M239 125h20v20m-20-20v20m0-20h-20v20m40 0h-20m20 0v20m0-20h20v20m-40-20v20m0-20h-20m40 20h-20m20 0h20m-20 0v20m-20-20v20h20m-20-20h-20v-20m60 20v20m0-20h20v20m-20 0h-20m20 0h20m-20 0v20m-20-20v20h20m20-20v20h-20"/><path fill="#949494" d="M119 145h20v20h-20v-20Zm-20 20h20v20H99v-20Zm0 60h20v20H99v-20Zm0 20h20v20H99v-20Zm0 20h20v20H99v-20Zm100 60h20v20h-20v-20Zm60 0h20v20h-20v-20Zm-20 0h20v20h-20v-20Zm-20 0h20v20h-20v-20Zm-40-20h20v20h-20v-20Zm0 20h20v20h-20v-20Zm-20-20h20v20h-20v-20Zm0 20h20v20h-20v-20Zm-20-40h20v20h-20v-20Zm0 20h20v20h-20v-20Zm-20-40h20v20h-20v-20Zm0 20h20v20h-20v-20Zm0-40h20v20h-20v-20Zm-20-40h20v20H99v-20Zm0-20h20v20H99v-20Z"/><path stroke="#949494" stroke-width="5" d="M119 165h20v-20h-20v20Zm0 0H99v20m20-20v20m0 0H99m20 0v20m-20-20v20m0 20h20m-20 0v20m0-20v-20m20 20v20m0-20v-20m0 40H99m20 0v20m0-20h20v20m-40-20v20m20 0H99m20 0v20m0-20h20m-40 0v20h20m0 0h20m-20 0v20h20m60 20h20m-20 0v20m0-20v-20h-20m20 20h-20m40 0v20m0-20h20m-20 20h-20m20 0h20m-40 0h-20m80-20h20v20h-20m0-20v20m0-20h-20m20 20h-20m0-20v20m-60-40v20m0-20h-20m20 20v20m0-20h-20m20 20h-20v-20m0-20v20m0-20v-20h-20m20 20h-20m20 20h-20v-20m0-20v20m0-20v-20m-40-60h20"/><path fill="#D9D9D9" d="M139 125h20v20h-20v-20Zm40-20h20v20h-20v-20Zm0 20h20v20h-20v-20Zm20-20h20v20h-20v-20Zm40 0h20v20h-20v-20Zm20 0h20v20h-20v-20Zm0 20h20v20h-20v-20Zm20 0h20v20h-20v-20Zm0 20h20v20h-20v-20Zm20 0h20v20h-20v-20Zm0 60h20v20h-20v-20Zm0-20h20v20h-20v-20Zm0 40h20v20h-20v-20Zm0 40h20v20h-20v-20Zm0-100h20v20h-20v-20Zm0 80h20v20h-20v-20Zm20-40h20v20h-20v-20Zm0-20h20v20h-20v-20Zm0 40h20v20h-20v-20Zm0-60h20v20h-20v-20Zm0 80h20v20h-20v-20Zm-40-20h20v20h-20v-20Zm0-20h20v20h-20v-20Zm0 40h20v20h-20v-20Zm0 40h20v20h-20v-20Zm-20 20h20v20h-20v-20Zm60-40h20v20h-20v-20Zm-20 20h20v20h-20v-20Zm-20 20h20v20h-20v-20Zm-120-20h20v20h-20v-20Zm40 20h20v20h-20v-20Zm-40-60h20v20h-20v-20Zm-20 0h20v20h-20v-20Zm20-20h20v20h-20v-20Zm-20-20h20v20h-20v-20Zm0-20h20v20h-20v-20Zm20 0h20v20h-20v-20Zm-20-20h20v20h-20v-20Zm20 0h20v20h-20v-20Zm-20-20h20v20h-20v-20Zm20 60h20v20h-20v-20Zm0-60h20v20h-20v-20Zm-40 20h20v20h-20v-20Zm0 60h20v20h-20v-20Zm0-20h20v20h-20v-20Zm0-20h20v20h-20v-20Zm20 40h20v20h-20v-20Zm20 40h20v20h-20v-20Zm-20 0h20v20h-20v-20Zm40 0h20v20h-20v-20Zm0 20h20v20h-20v-20Zm20 0h20v20h-20v-20Zm20 20h20v20h-20v-20Zm20 0h20v20h-20v-20Zm40-40h20v20h-20v-20ZM179 145h20v20h-20v-20Zm0 40h20v20h-20v-20Zm0-20h20v20h-20v-20Zm0 40h20v20h-20v-20Zm0 40h20v20h-20v-20Zm0-20h20v20h-20v-20Zm20-80h20v20h-20v-20Zm0 20h20v20h-20v-20Zm0 40h20v20h-20v-20Zm0-20h20v20h-20v-20Zm0 40h20v20h-20v-20Zm0 40h20v20h-20v-20Zm0-20h20v20h-20v-20Zm20-80h20v20h-20v-20Zm0 20h20v20h-20v-20Zm0 40h20v20h-20v-20Zm0-20h20v20h-20v-20Zm0 40h20v20h-20v-20Zm0 40h20v20h-20v-20Zm0-20h20v20h-20v-20Zm20-80h20v20h-20v-20Zm0 20h20v20h-20v-20Zm0 40h20v20h-20v-20Zm0-20h20v20h-20v-20Zm0 60h20v20h-20v-20Zm0-20h20v20h-20v-20Zm20-60h20v20h-20v-20Zm0 20h20v20h-20v-20Zm0 40h20v20h-20v-20Zm0 20h20v20h-20v-20Zm0-40h20v20h-20v-20Zm-60-120h20v20h-20v-20Zm20-20h20v20h-20v-20Zm-60 0h20v20h-20v-20Zm0 20h20v20h-20v-20Z"/><path stroke="#D9D9D9" stroke-width="5" d="M159 125h-20v20m20-20v20m0-20h20m-20 0v-20h20m-20 40h-20m20 0v20m0-20h20m-40 0v20m40-60h20m-20 0v20m20-20v20m0-20h20m-20 20h-20m20 0v20m0-20h20m-40 0v20m20 0h-20m20 0v20m0-20h20m-40 0v20m40-60v20m0-20h20m-20 20v20m0-20h20m0-20h20m-20 0v20m20-20v20m0-20h20v20m-20 0h-20m20 0h20m-20 0v20h20m0-20v20m0-20h20v20m-20 0h20m-20 0v20h20m0-20v20m0-20h20v20m-20 0h20m-20 0v20m20-20v20m0-20h20v20m-40 20h20m-20 0v20m0-20v-20m0 20h-20m40 0v20m0-20v-20m0 20h20m-20 20h-20m20 0v20m0-20h20m-40 0v20m0-20h-20m20-40h20m0 0h20m-20 60h-20m20 0v20m0-20h20m-40 0v20m0-20h-20m20 20h20m-20 0v20m0-20h-20m40 0v20m0-20h20m-20 20h-20m20 0h20v-20m-20 20v20h-20m0-20h-20m20 0v20m40-100v20m0-20v-20m0 40v20m0 0v20m-60-40v20m0-20v-20m0 20h-20m20 20v20m0-20h-20m20-40h-20m20 60v20m0-20h-20m20 20v20m0-20h-20m40 20h-20m20 0v20h-20m0-20h-20m20 0v20m-20-20v20m0-20h-20m20 0v-20m20 40h-20m0 0h-20m-80-40h20m-20 0v20h20m-20-20v-20m0 20h-20v-20m40 20v20m0-20v-20m0 20h20m-20 20h20m0 0h20m-20 0v20h20m-20-20v-20m20 20v20m0-20v-20m0 20h20m-20 20h20m-80-80h20m-20 0v20m0-20h-20m20 0v-20m20 20v20m0-20v-20m0 20h20m-20 20h-20m20 0h20m-40 0h-20m0-20v20m0-20v-20m0 20h-20v-20m40 0h20m-20 0v-20m0 20h-20m40 0v-20m0 20h20m-60-20h20m-20 0v20m0-20v-20m0 20h-20m40 0v-20m0 20h20m-40 20h-20m20-40h20m-20 0v-20m0 20h-20m40 0h20m-20 0v-20m20 20v20m0-20v-20m0 20h20m-20 20h20m-60-40h20m-20 0h-20v20m40-20h20m0 0h20m-80 20v20m0 20v-20m80 60v20m0-20v-20m0 20h20m-20 20h20m0 0v-20m0 20h20m0 20v20m0-20v-20m-40-120v20m0-20h20m-20 20v20m0-20h20m-20 20v20m0-20h20m-20 20v20m0-20h20m-20 20h20m0-100v20m0 0v20m0-20h20v20m-20 0v20m0-20h20m-20 20v20m0-20h20m-20 20v20m0-20h20m-20 20v20m0-20h20m-20 20h20m0-80v20m0-20h20v20m-20 0v20m0-20h20m-20 20v20m0-20h20m-20 20v20m0-20h20m-20 20v20m0-20h20m-20 20h20m0-80v20m0 0v20m0 0v20m0 0v20"/></svg>

<svg width="437" height="483" viewBox="0 0 437 483" fill="none" xmlns="http://www.w3.org/2000/svg">
<path d="M239 125H259V145H239V125Z" fill="#EDEDED"/>
<path d="M239 145H259V165H239V145Z" fill="#EDEDED"/>
<path d="M259 165H279V185H259V165Z" fill="#EDEDED"/>
<path d="M259 145H279V165H259V145Z" fill="#EDEDED"/>
<path d="M279 165H299V185H279V165Z" fill="#EDEDED"/>
<path d="M279 185H299V205H279V185Z" fill="#EDEDED"/>
<path d="M259 185H279V205H259V185Z" fill="#EDEDED"/>
<path d="M239 165H259V185H239V165Z" fill="#EDEDED"/>
<path d="M219 145H239V165H219V145Z" fill="#EDEDED"/>
<path d="M219 125H239V145H219V125Z" fill="#EDEDED"/>
<path d="M239 125H259V145M239 125V145M239 125H219V145M259 145H239M259 145V165M259 145H279V165M239 145V165M239 145H219M259 165H239M259 165H279M259 165V185M239 165V185H259M239 165H219V145M279 165V185M279 165H299V185M279 185H259M279 185H299M279 185V205M259 185V205H279M299 185V205H279" stroke="#EDEDED" stroke-width="5"/>
<path d="M119 145H139V165H119V145Z" fill="#949494"/>
<path d="M99 165H119V185H99V165Z" fill="#949494"/>
<path d="M99 225H119V245H99V225Z" fill="#949494"/>
<path d="M99 245H119V265H99V245Z" fill="#949494"/>
<path d="M99 265H119V285H99V265Z" fill="#949494"/>
<path d="M199 325H219V345H199V325Z" fill="#949494"/>
<path d="M259 325H279V345H259V325Z" fill="#949494"/>
<path d="M239 325H259V345H239V325Z" fill="#949494"/>
<path d="M219 325H239V345H219V325Z" fill="#949494"/>
<path d="M179 305H199V325H179V305Z" fill="#949494"/>
<path d="M179 325H199V345H179V325Z" fill="#949494"/>
<path d="M159 305H179V325H159V305Z" fill="#949494"/>
<path d="M159 325H179V345H159V325Z" fill="#949494"/>
<path d="M139 285H159V305H139V285Z" fill="#949494"/>
<path d="M139 305H159V325H139V305Z" fill="#949494"/>
<path d="M119 265H139V285H119V265Z" fill="#949494"/>
<path d="M119 285H139V305H119V285Z" fill="#949494"/>
<path d="M119 245H139V265H119V245Z" fill="#949494"/>
<path d="M99 205H119V225H99V205Z" fill="#949494"/>
<path d="M99 185H119V205H99V185Z" fill="#949494"/>
<path d="M119 165H139V145H119V165ZM119 165H99V185M119 165V185M119 185H99M119 185V205M99 185V205M99 225H119M99 225V245M99 225V205M119 225V245M119 225V205M119 245H99M119 245V265M119 245H139V265M99 245V265M119 265H99M119 265V285M119 265H139M99 265V285H119M119 285H139M119 285V305H139M199 325H219M199 325V345M199 325V305H179M199 325H179M219 325V345M219 325H239M219 345H199M219 345H239M199 345H179M259 325H279V345H259M259 325V345M259 325H239M259 345H239M239 325V345M179 305V325M179 305H159M179 325V345M179 325H159M179 345H159V325M159 305V325M159 305V285H139M159 305H139M159 325H139V305M139 285V305M139 285V265M99 205H119" stroke="#949494" stroke-width="5"/>
<path d="M139 125H159V145H139V125Z" fill="#D9D9D9"/>
<path d="M179 105H199V125H179V105Z" fill="#D9D9D9"/>
<path d="M179 125H199V145H179V125Z" fill="#D9D9D9"/>
<path d="M199 105H219V125H199V105Z" fill="#D9D9D9"/>
<path d="M239 105H259V125H239V105Z" fill="#D9D9D9"/>
<path d="M259 105H279V125H259V105Z" fill="#D9D9D9"/>
<path d="M259 125H279V145H259V125Z" fill="#D9D9D9"/>
<path d="M279 125H299V145H279V125Z" fill="#D9D9D9"/>
<path d="M279 145H299V165H279V145Z" fill="#D9D9D9"/>
<path d="M299 145H319V165H299V145Z" fill="#D9D9D9"/>
<path d="M299 205H319V225H299V205Z" fill="#D9D9D9"/>
<path d="M299 185H319V205H299V185Z" fill="#D9D9D9"/>
<path d="M299 225H319V245H299V225Z" fill="#D9D9D9"/>
<path d="M299 265H319V285H299V265Z" fill="#D9D9D9"/>
<path d="M299 165H319V185H299V165Z" fill="#D9D9D9"/>
<path d="M299 245H319V265H299V245Z" fill="#D9D9D9"/>
<path d="M319 205H339V225H319V205Z" fill="#D9D9D9"/>
<path d="M319 185H339V205H319V185Z" fill="#D9D9D9"/>
<path d="M319 225H339V245H319V225Z" fill="#D9D9D9"/>
<path d="M319 165H339V185H319V165Z" fill="#D9D9D9"/>
<path d="M319 245H339V265H319V245Z" fill="#D9D9D9"/>
<path d="M279 225H299V245H279V225Z" fill="#D9D9D9"/>
<path d="M279 205H299V225H279V205Z" fill="#D9D9D9"/>
<path d="M279 245H299V265H279V245Z" fill="#D9D9D9"/>
<path d="M279 285H299V305H279V285Z" fill="#D9D9D9"/>
<path d="M259 305H279V325H259V305Z" fill="#D9D9D9"/>
<path d="M319 265H339V285H319V265Z" fill="#D9D9D9"/>
<path d="M299 285H319V305H299V285Z" fill="#D9D9D9"/>
<path d="M279 305H299V325H279V305Z" fill="#D9D9D9"/>
<path d="M159 285H179V305H159V285Z" fill="#D9D9D9"/>
<path d="M199 305H219V325H199V305Z" fill="#D9D9D9"/>
<path d="M159 245H179V265H159V245Z" fill="#D9D9D9"/>
<path d="M139 245H159V265H139V245Z" fill="#D9D9D9"/>
<path d="M159 225H179V245H159V225Z" fill="#D9D9D9"/>
<path d="M139 205H159V225H139V205Z" fill="#D9D9D9"/>
<path d="M139 185H159V205H139V185Z" fill="#D9D9D9"/>
<path d="M159 185H179V205H159V185Z" fill="#D9D9D9"/>
<path d="M139 165H159V185H139V165Z" fill="#D9D9D9"/>
<path d="M159 165H179V185H159V165Z" fill="#D9D9D9"/>
<path d="M139 145H159V165H139V145Z" fill="#D9D9D9"/>
<path d="M159 205H179V225H159V205Z" fill="#D9D9D9"/>
<path d="M159 145H179V165H159V145Z" fill="#D9D9D9"/>
<path d="M119 165H139V185H119V165Z" fill="#D9D9D9"/>
<path d="M119 225H139V245H119V225Z" fill="#D9D9D9"/>
<path d="M119 205H139V225H119V205Z" fill="#D9D9D9"/>
<path d="M119 185H139V205H119V185Z" fill="#D9D9D9"/>
<path d="M139 225H159V245H139V225Z" fill="#D9D9D9"/>
<path d="M159 265H179V285H159V265Z" fill="#D9D9D9"/>
<path d="M139 265H159V285H139V265Z" fill="#D9D9D9"/>
<path d="M179 265H199V285H179V265Z" fill="#D9D9D9"/>
<path d="M179 285H199V305H179V285Z" fill="#D9D9D9"/>
<path d="M199 285H219V305H199V285Z" fill="#D9D9D9"/>
<path d="M219 305H239V325H219V305Z" fill="#D9D9D9"/>
<path d="M239 305H259V325H239V305Z" fill="#D9D9D9"/>
<path d="M279 265H299V285H279V265Z" fill="#D9D9D9"/>
<path d="M179 145H199V165H179V145Z" fill="#D9D9D9"/>
<path d="M179 185H199V205H179V185Z" fill="#D9D9D9"/>
<path d="M179 165H199V185H179V165Z" fill="#D9D9D9"/>
<path d="M179 205H199V225H179V205Z" fill="#D9D9D9"/>
<path d="M179 245H199V265H179V245Z" fill="#D9D9D9"/>
<path d="M179 225H199V245H179V225Z" fill="#D9D9D9"/>
<path d="M199 145H219V165H199V145Z" fill="#D9D9D9"/>
<path d="M199 165H219V185H199V165Z" fill="#D9D9D9"/>
<path d="M199 205H219V225H199V205Z" fill="#D9D9D9"/>
<path d="M199 185H219V205H199V185Z" fill="#D9D9D9"/>
<path d="M199 225H219V245H199V225Z" fill="#D9D9D9"/>
<path d="M199 265H219V285H199V265Z" fill="#D9D9D9"/>
<path d="M199 245H219V265H199V245Z" fill="#D9D9D9"/>
<path d="M219 165H239V185H219V165Z" fill="#D9D9D9"/>
<path d="M219 185H239V205H219V185Z" fill="#D9D9D9"/>
<path d="M219 225H239V245H219V225Z" fill="#D9D9D9"/>
<path d="M219 205H239V225H219V205Z" fill="#D9D9D9"/>
<path d="M219 245H239V265H219V245Z" fill="#D9D9D9"/>
<path d="M219 285H239V305H219V285Z" fill="#D9D9D9"/>
<path d="M219 265H239V285H219V265Z" fill="#D9D9D9"/>
<path d="M239 185H259V205H239V185Z" fill="#D9D9D9"/>
<path d="M239 205H259V225H239V205Z" fill="#D9D9D9"/>
<path d="M239 245H259V265H239V245Z" fill="#D9D9D9"/>
<path d="M239 225H259V245H239V225Z" fill="#D9D9D9"/>
<path d="M239 285H259V305H239V285Z" fill="#D9D9D9"/>
<path d="M239 265H259V285H239V265Z" fill="#D9D9D9"/>
<path d="M259 205H279V225H259V205Z" fill="#D9D9D9"/>
<path d="M259 225H279V245H259V225Z" fill="#D9D9D9"/>
<path d="M259 265H279V285H259V265Z" fill="#D9D9D9"/>
<path d="M259 285H279V305H259V285Z" fill="#D9D9D9"/>
<path d="M259 245H279V265H259V245Z" fill="#D9D9D9"/>
<path d="M199 125H219V145H199V125Z" fill="#D9D9D9"/>
<path d="M219 105H239V125H219V105Z" fill="#D9D9D9"/>
<path d="M159 105H179V125H159V105Z" fill="#D9D9D9"/>
<path d="M159 125H179V145H159V125Z" fill="#D9D9D9"/>
<path d="M159 125H139V145M159 125V145M159 125H179M159 125V105H179M159 145H139M159 145V165M159 145H179M139 145V165M179 105H199M179 105V125M199 105V125M199 105H219M199 125H179M199 125V145M199 125H219M179 125V145M199 145H179M199 145V165M199 145H219M179 145V165M219 105V125M219 105H239M219 125V145M219 125H239M239 105H259M239 105V125M259 105V125M259 105H279V125M259 125H239M259 125H279M259 125V145H279M279 125V145M279 125H299V145M279 145H299M279 145V165H299M299 145V165M299 145H319V165M299 165H319M299 165V185M319 165V185M319 165H339V185M299 205H319M299 205V225M299 205V185M299 205H279M319 205V225M319 205V185M319 205H339M319 225H299M319 225V245M319 225H339M299 225V245M299 225H279M299 185H319M319 185H339M319 245H299M319 245V265M319 245H339M299 245V265M299 245H279M299 265H319M299 265V285M299 265H279M319 265V285M319 265H339M319 285H299M319 285H339V265M319 285V305H299M299 285H279M299 285V305M339 205V225M339 205V185M339 225V245M339 245V265M279 225V245M279 225V205M279 225H259M279 245V265M279 245H259M279 205H259M279 265V285M279 265H259M279 285V305M279 285H259M299 305H279M299 305V325H279M279 305H259M279 305V325M259 305V325M259 305H239M259 305V285M279 325H259M259 325H239M159 285H179M159 285V305H179M159 285V265M159 285H139V265M179 285V305M179 285V265M179 285H199M179 305H199M199 305H219M199 305V325H219M199 305V285M219 305V325M219 305V285M219 305H239M219 325H239M159 245H179M159 245V265M159 245H139M159 245V225M179 245V265M179 245V225M179 245H199M179 265H159M179 265H199M159 265H139M139 245V265M139 245V225M139 245H119V225M159 225H179M159 225V205M159 225H139M179 225V205M179 225H199M139 205H159M139 205V225M139 205V185M139 205H119M159 205V185M159 205H179M139 225H119M139 185H159M139 185V165M139 185H119M159 185H179M159 185V165M179 185V205M179 185V165M179 185H199M179 205H199M139 165H159M139 165H119V185M159 165H179M179 165H199M119 185V205M119 225V205M199 265V285M199 265V245M199 265H219M199 285H219M219 285V265M219 285H239M239 305V325M239 305V285M199 165V185M199 165H219M199 185V205M199 185H219M199 205V225M199 205H219M199 225V245M199 225H219M199 245H219M219 145V165M219 165V185M219 165H239V185M219 185V205M219 185H239M219 205V225M219 205H239M219 225V245M219 225H239M219 245V265M219 245H239M219 265H239M239 185V205M239 185H259V205M239 205V225M239 205H259M239 225V245M239 225H259M239 245V265M239 245H259M239 265V285M239 265H259M239 285H259M259 205V225M259 225V245M259 245V265M259 265V285" stroke="#D9D9D9" stroke-width="5"/>
</svg>
